!!!COM:	Bach, Johann Sebastian
!!!OMV:	Freu dich sehr, o meine Seele
!!!OTL:	Freu dich sehr, o meine Seele
**kern	**fb	**kern	**kern	**kern	**kern
*part5	*part5	*part4	*part3	*part2	*part1
*staff5	*	*staff4	*staff3	*staff2	*staff1
*I"Continuo	*	*I"Voice	*I"Voice	*I"Voice	*I"Voice
*I'Cont.	*	*I'V	*I'V	*I'V	*I'V
*clefF4	*	*clefF4	*clefGv2	*clefG2	*clefG2
*Trd0c0	*	*	*	*	*
*k[f#c#g#]	*	*k[f#c#g#]	*k[f#c#g#]	*k[f#c#g#]	*k[f#c#g#]
*M4/4	*	*M4/4	*M4/4	*M4/4	*M4/4
=	=	=	=	=	=
4AA	.	4A	4c#	4e	4a
4GG#	6	4G#	4e	4e	4b
4AA	5	4A	8eL	4a	4cc#
.	6	.	8f#J	.	.
4BB	5 #	4B	8f#L	4d#X	4b
.	6	.	8g#J	.	.
=3	=3	=3	=3	=3	=3
8C#L	6	8c#L	8c#L	8eL	4a
8D#XJ	6 5	8d#XJ	8BJ	8f#J	.
4E	9	4e	4B	8f#L	4g#
.	8	.	.	8eJ	.
4AA	6 5	4A	4c#	4e	2f#
4BB	#	4B	8BL	4d#X	.
.	.	.	8AJ	.	.
=4	=4	=4	=4	=4	=4
2EE;	.	2E;	2G#;	2B;	2e;
4FF#	.	4F#	4c#	4f#	4a
4GG#	7	4G#	4B	8f#L	4b
.	6	.	.	8eJ	.
=5	=5	=5	=5	=5	=5
4AA	9	4A	8BL	4e	4cc#
.	8	.	8AJ	.	.
4BB	7	4B	8AL	4b	4dd
.	6	.	8G#J	.	.
8C#L	.	8c#L	4e	8bL	4cc#
8DJ	.	8d	.	8aJ	.
4E	4	8e	8eL	8aL	4b
.	.	8EJ	8dJ	8g#J	.
=6	=6	=6	=6	=6	=6
1AA;	.	1A;	1c#;	1e;	1a;
=7:|!	=7:|!	=7:|!	=7:|!	=7:|!	=7:|!
!!linebreak:original
4AA	.	4AA	4e	4a	4cc#
4BB	7	4BB	4B	8aL	4dd
.	nr6	.	.	8gnJ	.
4C#	7 nr5	4C#	8BL	4g	4ee
.	#6\	.	8A#XJ	.	.
8DL	6	8DL	4B	8f#L	4dd
8EJ	.	8EJ	.	8g#XJ	.
=8	=8	=8	=8	=8	=8
4F#	#	4F#	8F#	4a#X	4cc#
.	.	.	4f#	.	.
4Gn	7	4Gn	.	8bL	4b
.	6	.	8e	8BJ	.
2F#;	#	2F#;	2A#X;	2f#;	2cc#;
=9	=9	=9	=9	=9	=9
8C#L	6	8C#L	8AnL	4e	4ee
8BBJ	.	8BBJ	8BJ	.	.
4AA	8	4AA	4c#	8aL	4ee
.	nr7	.	.	8gnJ	.
4D	7	4D	8c#L	4f#	4ff#
.	6	.	8BJ	.	.
4E	5	4E	8BL	4g#X	4ee
.	6	.	8c#J	.	.
=10	=10	=10	=10	=10	=10
8F#L	6 5	8F#L	8c#L	8a	4dd
8G#J	6 5	8G#J	8BJ	4e	.
4A	5	4A	8c#L	.	4cc#
.	6	.	8d#XJ	8f#	.
2E;	.	2E;	2e;	2g#;	2b;
=11	=11	=11	=11	=11	=11
4A	.	4A	4e	4a	8cc#L
.	.	.	.	.	8ddJ
8AL	5 2	8AL	4e	4b	4ee
8G#J	.	8G#J	.	.	.
4F#	6	4F#	8AL	4a	4dd
.	.	.	8BJ	.	.
4E#X	6	4E#X	4c#	4g#	8cc#L
.	5	.	.	.	8bJ
=12	=12	=12	=12	=12	=12
!!pagebreak:original
8F#L	9	8F#L	4c#	8g#L	4a
8EJ	.	8EnJ	.	8f#J	.
4D	6	4D	8dL	8f#L	4b
.	.	.	8BJ	8g#J	.
8AAL	6	8AL	4.f#	4a	2cc#
8BBJ	.	8BJ	.	.	.
4C#	4	4c#	.	4g#	.
.	#	.	8e#X	.	.
=13	=13	=13	=13	=13	=13
2FF#;	.	2F#;	2c#;	2f#;	2a;
4FF#	5 #	4F#	4f#	4a#X	8cc#L
.	6	.	.	.	8ddJ
8GG#L	6	8G#L	8BL	8bL	4ee
8AA#XJ	6 5	8A#XJ	8c#J	8f#J	.
=14	=14	=14	=14	=14	=14
4BB	5	4B	4d	8f#L	4dd
.	6	.	.	8g#J	.
8C#L	6	8c#L	4e	4an	4cc#
8DJ	.	8dJ	.	.	.
8EL	.	8EL	4e	4g#	4b
8DJ	.	8DJ	.	.	.
8C#L	6	8C#L	4e	[4a	8.cc#L
8AAJ	.	8AAJ	.	.	.
.	.	.	.	.	16ddJk
=15	=15	=15	=15	=15	=15
4E	4	2E	4.e	8a]	2b
.	.	.	.	16g#LL	.
.	.	.	.	16f#JJ	.
4EE	3	.	.	4g#	.
.	.	.	8d	.	.
2AA;	.	2AA;	2c#;	2e;	2a;
=||	=||	=||	=||	=||	=||
*-	*-	*-	*-	*-	*-
!!!system-decoration: s1,s2,s3,s4,s5
